X: 237
T: Du linying
L: 1/8
M: 4/8
K: G
A2B2 [I:setbarnb 1]| 
e dG2- | 
G B A F | 
E4 | 
A2d2 | 
e dG2- | 
G B A F | 
E4 | 
e2e2 | 
B2d2 | 
B AG2 | 
F ED2 | 
G2A G | 
F E G D | 
D ED4 |]

@@@ Tune index: 9111
